docs/images/feautures/features-part1.svg

<svg width="244" height="633" viewBox="0 0 244 633" fill="none" xmlns="http://www.w3.org/2000/svg">
<g filter="url(#filter0_d)">
<path d="M99.3727 533C89.2257 533 81 541.407 81 551.778H117.745C117.745 541.407 109.52 533 99.3727 533Z" fill="#EEF3FF"/>
</g>
<g filter="url(#filter1_d)">
<path d="M114.5 542C92.1325 542 74 560.356 74 583H155C155 560.356 136.868 542 114.5 542Z" fill="#E1EAFF"/>
</g>
<g filter="url(#filter2_d)">
<path d="M67 549C54.8497 549 45 558.85 45 571H89C89 558.85 79.1503 549 67 549Z" fill="#D5E0FB"/>
</g>
<g filter="url(#filter3_d)">
<path d="M187.913 40C182.102 40 177.391 44.8761 177.391 50.8911H198.436C198.436 44.8761 193.725 40 187.913 40Z" fill="#EEF3FF"/>
</g>
<g filter="url(#filter4_d)">
<path d="M167.195 42.22C154.385 42.22 144 52.8666 144 66H190.391C190.391 52.8666 180.006 42.22 167.195 42.22Z" fill="#E1EAFF"/>
</g>
<g filter="url(#filter5_d)">
<path d="M143.5 555C134.94 555 128 562.163 128 571H159C159 562.163 152.06 555 143.5 555Z" fill="#ECF1FC"/>
</g>
<defs>
<filter id="filter0_d" x="36" y="493" width="126.745" height="108.778" filterUnits="userSpaceOnUse" color-interpolation-filters="sRGB">
<feFlood flood-opacity="0" result="BackgroundImageFix"/>
<feColorMatrix in="SourceAlpha" type="matrix" values="0 0 0 0 0 0 0 0 0 0 0 0 0 0 0 0 0 0 127 0" result="hardAlpha"/>
<feOffset dy="5"/>
<feGaussianBlur stdDeviation="22.5"/>
<feColorMatrix type="matrix" values="0 0 0 0 0.593724 0 0 0 0 0.684469 0 0 0 0 0.888646 0 0 0 0.1 0"/>
<feBlend mode="normal" in2="BackgroundImageFix" result="effect1_dropShadow"/>
<feBlend mode="normal" in="SourceGraphic" in2="effect1_dropShadow" result="shape"/>
</filter>
<filter id="filter1_d" x="29" y="502" width="171" height="131" filterUnits="userSpaceOnUse" color-interpolation-filters="sRGB">
<feFlood flood-opacity="0" result="BackgroundImageFix"/>
<feColorMatrix in="SourceAlpha" type="matrix" values="0 0 0 0 0 0 0 0 0 0 0 0 0 0 0 0 0 0 127 0" result="hardAlpha"/>
<feOffset dy="5"/>
<feGaussianBlur stdDeviation="22.5"/>
<feColorMatrix type="matrix" values="0 0 0 0 0.593724 0 0 0 0 0.684469 0 0 0 0 0.888646 0 0 0 0.1 0"/>
<feBlend mode="normal" in2="BackgroundImageFix" result="effect1_dropShadow"/>
<feBlend mode="normal" in="SourceGraphic" in2="effect1_dropShadow" result="shape"/>
</filter>
<filter id="filter2_d" x="0" y="509" width="134" height="112" filterUnits="userSpaceOnUse" color-interpolation-filters="sRGB">
<feFlood flood-opacity="0" result="BackgroundImageFix"/>
<feColorMatrix in="SourceAlpha" type="matrix" values="0 0 0 0 0 0 0 0 0 0 0 0 0 0 0 0 0 0 127 0" result="hardAlpha"/>
<feOffset dy="5"/>
<feGaussianBlur stdDeviation="22.5"/>
<feColorMatrix type="matrix" values="0 0 0 0 0.593724 0 0 0 0 0.684469 0 0 0 0 0.888646 0 0 0 0.1 0"/>
<feBlend mode="normal" in2="BackgroundImageFix" result="effect1_dropShadow"/>
<feBlend mode="normal" in="SourceGraphic" in2="effect1_dropShadow" result="shape"/>
</filter>
<filter id="filter3_d" x="132.391" y="0" width="111.045" height="100.891" filterUnits="userSpaceOnUse" color-interpolation-filters="sRGB">
<feFlood flood-opacity="0" result="BackgroundImageFix"/>
<feColorMatrix in="SourceAlpha" type="matrix" values="0 0 0 0 0 0 0 0 0 0 0 0 0 0 0 0 0 0 127 0" result="hardAlpha"/>
<feOffset dy="5"/>
<feGaussianBlur stdDeviation="22.5"/>
<feColorMatrix type="matrix" values="0 0 0 0 0.593724 0 0 0 0 0.684469 0 0 0 0 0.888646 0 0 0 0.1 0"/>
<feBlend mode="normal" in2="BackgroundImageFix" result="effect1_dropShadow"/>
<feBlend mode="normal" in="SourceGraphic" in2="effect1_dropShadow" result="shape"/>
</filter>
<filter id="filter4_d" x="99" y="2.21997" width="136.391" height="113.78" filterUnits="userSpaceOnUse" color-interpolation-filters="sRGB">
<feFlood flood-opacity="0" result="BackgroundImageFix"/>
<feColorMatrix in="SourceAlpha" type="matrix" values="0 0 0 0 0 0 0 0 0 0 0 0 0 0 0 0 0 0 127 0" result="hardAlpha"/>
<feOffset dy="5"/>
<feGaussianBlur stdDeviation="22.5"/>
<feColorMatrix type="matrix" values="0 0 0 0 0.593724 0 0 0 0 0.684469 0 0 0 0 0.888646 0 0 0 0.1 0"/>
<feBlend mode="normal" in2="BackgroundImageFix" result="effect1_dropShadow"/>
<feBlend mode="normal" in="SourceGraphic" in2="effect1_dropShadow" result="shape"/>
</filter>
<filter id="filter5_d" x="83" y="515" width="121" height="106" filterUnits="userSpaceOnUse" color-interpolation-filters="sRGB">
<feFlood flood-opacity="0" result="BackgroundImageFix"/>
<feColorMatrix in="SourceAlpha" type="matrix" values="0 0 0 0 0 0 0 0 0 0 0 0 0 0 0 0 0 0 127 0" result="hardAlpha"/>
<feOffset dy="5"/>
<feGaussianBlur stdDeviation="22.5"/>
<feColorMatrix type="matrix" values="0 0 0 0 0.593724 0 0 0 0 0.684469 0 0 0 0 0.888646 0 0 0 0.1 0"/>
<feBlend mode="normal" in2="BackgroundImageFix" result="effect1_dropShadow"/>
<feBlend mode="normal" in="SourceGraphic" in2="effect1_dropShadow" result="shape"/>
</filter>
</defs>
</svg>

<svg width="244" height="633" fill="none" xmlns="http://www.w3.org/2000/svg"><g filter="url(#a)"><path d="M99.373 533C89.226 533 81 541.407 81 551.778h36.745c0-10.371-8.225-18.778-18.372-18.778Z" fill="#EEF3FF"/></g><g filter="url(#b)"><path d="M114.5 542C92.132 542 74 560.356 74 583h81c0-22.644-18.132-41-40.5-41Z" fill="#E1EAFF"/></g><g filter="url(#c)"><path d="M67 549c-12.15 0-22 9.85-22 22h44c0-12.15-9.85-22-22-22Z" fill="#D5E0FB"/></g><g filter="url(#d)"><path d="M187.913 40c-5.811 0-10.522 4.876-10.522 10.891h21.045c0-6.015-4.711-10.891-10.523-10.891Z" fill="#EEF3FF"/></g><g filter="url(#e)"><path d="M167.195 42.22C154.385 42.22 144 52.867 144 66h46.391c0-13.133-10.385-23.78-23.196-23.78Z" fill="#E1EAFF"/></g><g filter="url(#f)"><path d="M143.5 555c-8.56 0-15.5 7.163-15.5 16h31c0-8.837-6.94-16-15.5-16Z" fill="#ECF1FC"/></g><defs><filter id="a" x="36" y="493" width="126.745" height="108.778" filterUnits="userSpaceOnUse" color-interpolation-filters="sRGB"><feFlood flood-opacity="0" result="BackgroundImageFix"/><feColorMatrix in="SourceAlpha" values="0 0 0 0 0 0 0 0 0 0 0 0 0 0 0 0 0 0 127 0" result="hardAlpha"/><feOffset dy="5"/><feGaussianBlur stdDeviation="22.5"/><feColorMatrix values="0 0 0 0 0.593724 0 0 0 0 0.684469 0 0 0 0 0.888646 0 0 0 0.1 0"/><feBlend in2="BackgroundImageFix" result="effect1_dropShadow"/><feBlend in="SourceGraphic" in2="effect1_dropShadow" result="shape"/></filter><filter id="b" x="29" y="502" width="171" height="131" filterUnits="userSpaceOnUse" color-interpolation-filters="sRGB"><feFlood flood-opacity="0" result="BackgroundImageFix"/><feColorMatrix in="SourceAlpha" values="0 0 0 0 0 0 0 0 0 0 0 0 0 0 0 0 0 0 127 0" result="hardAlpha"/><feOffset dy="5"/><feGaussianBlur stdDeviation="22.5"/><feColorMatrix values="0 0 0 0 0.593724 0 0 0 0 0.684469 0 0 0 0 0.888646 0 0 0 0.1 0"/><feBlend in2="BackgroundImageFix" result="effect1_dropShadow"/><feBlend in="SourceGraphic" in2="effect1_dropShadow" result="shape"/></filter><filter id="c" x="0" y="509" width="134" height="112" filterUnits="userSpaceOnUse" color-interpolation-filters="sRGB"><feFlood flood-opacity="0" result="BackgroundImageFix"/><feColorMatrix in="SourceAlpha" values="0 0 0 0 0 0 0 0 0 0 0 0 0 0 0 0 0 0 127 0" result="hardAlpha"/><feOffset dy="5"/><feGaussianBlur stdDeviation="22.5"/><feColorMatrix values="0 0 0 0 0.593724 0 0 0 0 0.684469 0 0 0 0 0.888646 0 0 0 0.1 0"/><feBlend in2="BackgroundImageFix" result="effect1_dropShadow"/><feBlend in="SourceGraphic" in2="effect1_dropShadow" result="shape"/></filter><filter id="d" x="132.391" y="0" width="111.045" height="100.891" filterUnits="userSpaceOnUse" color-interpolation-filters="sRGB"><feFlood flood-opacity="0" result="BackgroundImageFix"/><feColorMatrix in="SourceAlpha" values="0 0 0 0 0 0 0 0 0 0 0 0 0 0 0 0 0 0 127 0" result="hardAlpha"/><feOffset dy="5"/><feGaussianBlur stdDeviation="22.5"/><feColorMatrix values="0 0 0 0 0.593724 0 0 0 0 0.684469 0 0 0 0 0.888646 0 0 0 0.1 0"/><feBlend in2="BackgroundImageFix" result="effect1_dropShadow"/><feBlend in="SourceGraphic" in2="effect1_dropShadow" result="shape"/></filter><filter id="e" x="99" y="2.22" width="136.391" height="113.78" filterUnits="userSpaceOnUse" color-interpolation-filters="sRGB"><feFlood flood-opacity="0" result="BackgroundImageFix"/><feColorMatrix in="SourceAlpha" values="0 0 0 0 0 0 0 0 0 0 0 0 0 0 0 0 0 0 127 0" result="hardAlpha"/><feOffset dy="5"/><feGaussianBlur stdDeviation="22.5"/><feColorMatrix values="0 0 0 0 0.593724 0 0 0 0 0.684469 0 0 0 0 0.888646 0 0 0 0.1 0"/><feBlend in2="BackgroundImageFix" result="effect1_dropShadow"/><feBlend in="SourceGraphic" in2="effect1_dropShadow" result="shape"/></filter><filter id="f" x="83" y="515" width="121" height="106" filterUnits="userSpaceOnUse" color-interpolation-filters="sRGB"><feFlood flood-opacity="0" result="BackgroundImageFix"/><feColorMatrix in="SourceAlpha" values="0 0 0 0 0 0 0 0 0 0 0 0 0 0 0 0 0 0 127 0" result="hardAlpha"/><feOffset dy="5"/><feGaussianBlur stdDeviation="22.5"/><feColorMatrix values="0 0 0 0 0.593724 0 0 0 0 0.684469 0 0 0 0 0.888646 0 0 0 0.1 0"/><feBlend in2="BackgroundImageFix" result="effect1_dropShadow"/><feBlend in="SourceGraphic" in2="effect1_dropShadow" result="shape"/></filter></defs></svg>
